X: 1668
T: Little Old Log Cabin in the Lane
C:Will S Hays, (1837 - 1907)
B: australian traditional tunes wiki
M:4/4
L:1/8
R: March
Q: 1/4=100
K:Dmaj
V:1 
|:FG|"D"A2-AF/2A/2 BA FD|F<A Bc"G" d2 cB|"D"A2-AF/2A/2 BA GF|"A7"E6FG|
"D"A2-AF/2A/2 BA FD|F<A Bc "G"d2 cB|"A7"Ad cB AF EF|"D"D6:|
dd|"A7"ce ce c2-cB/2c/2|"D"dA FAD2EF|"G"G2-GA BA GF|"A7"E6FG|
"D"A2-AF/2A/2 BA FD|FA Bc "G"d2 cB|"A7"Ad cB AF EF|"D"D6||
% abcbook-tune_id 6342d53a0b888d83d11bf331


% abcbook-boost 0
% abcbook-tablature 
% abcbook-transpose 
% abcbook-lastupdated 1665324377028
% abcbook-soundfonts 
% abcbook-repeats 1
% NFF Book 2020

